X:1
T:James Gibb editions
T:Meine Seele erhebt den Herren, SWV 344 - Schütz
T:#
%%score [ 1 2 3 4 ]
L:1/8
Q:1/4=90
M:4/4
K:C
V:1 treble nm="Violin I" snm="I"
V:2 treble nm="Violin II" snm="II"
V:3 treble nm="Soprano" snm="S"
V:4 bass nm="Continuo"
V:1
"^Magnificat""^Heinrich Schütz\n(1585-1672)""^Meine Seele erhebt den Herren, SWV 344" z8 | z8 | %2
 z8 | z8 | z8 | z8 | z8 | z e e>d ^f2 f2 | z d d>c e2 e2 | z deg f3/2e/4f/4 d3/2e/4f/4 | e6 e2 | %11
 z2 ff g2 f2 | e2 d4 c2- | c2 B2 c2 dd | e2 d2 c4 | B4 A2 aa | b2 a2 g2 ^f2- | f2 e4 ^d2 | e8 | %19
 z8 | z8 | z8 | z8 | z8 | z8 | f2 dg ec z a | ^fd z g ec z =f | dB z e cA z2 | z4 AB/c/ dc | %29
 B2 z2 z4 | z4 e^f/g/ ag | ^ffg=f e3 d | da^fd z4 | z8 | de/f/ gf eefe | d3 c c4 | de/^f/ gf eefe | %37
 ^d2 e4 d2 | e8 ||"^(Viola o Trombone)" z4 G4 | G4 F2 F2 | E3 E E4 | C2 D2 E2 F2 | D3 D D4 | %44
 C2 D2 E2 G2 | F6 G2 | E4 z4 | C2 D2 E2 F2 | D2 E2 F2 G2 | E2 F2 G2 A2 | ^F2 G4 F2 | G4 D2 E^F | %52
 G2 B,2 ^C4 | D4 z4 | z8 | z4 E2 FG | A2 C2 D4 | E4 z4 | z A,B,C D2 B,2 | z B,CD E2 C2 | %60
 D2 E^F G2 E2 | ^F2 G2 F4 | E8 || z"^(Cornetto o Trombetta)" E GG/G/ cecd | e2 z2 z e/f/ ga | %65
 gfed c2 g2 | a2 e2 g4- | g4 ^f4 | g4 z2 z e/=f/ | gagf ed c2 | z2 G2 c2 G2 | d8 | d4 z4 | z8 | %74
 z8 | z8 | z8 | z8 | z4 z2 z ^f/g/ | abag ^fe d2- | de ^f4 e2 | ^f6 e2 | e4 z e/^f/ ga | %83
 g^fed c2 e2 | f2 ^c2 d4- | d4 ^c4 | d8 || B"^(Flautino)"c/d/ AB G^FGE | ^F2 z2 GA/B/ FG | %89
 EDE^C D2 (G/^F/)(G/A/) | BB (A/G/)(A/B/) cc (B/A/)(B/c/) | dd z c B2 A2 | G2 z2 z4 | z8 | z8 | %95
 z8 | z8 | z8 | z2 (B/A/)(B/c/) dd (c/B/)(c/d/) | ee z d c2 B2 | A4 z4 | z8 | z2 e2 c3 d | B8 || %104
[M:3/2][Q:1/4=180] d2 c2 B2 c2 A4 | G8 z4 | %106
[M:3/2][Q:1/4=180][Q:1/4=180][Q:1/4=180][Q:1/4=180] G2 A2 B2 c2 A4 | G8 z4 | G2 A2 B2 c2 B4 | %109
 c8 z4 | G2 A2 B4 A2 B2 | c2 A2 B2 c2 B4 ||[M:4/4][Q:1/4=90] c8 | %113
[M:4/4][Q:1/4=90][Q:1/4=90][Q:1/4=90][Q:1/4=90] z8 | z8 | z8 | z8 | z8 | z8 | z8 | z8 || %121
"^(Violin)" e2 g3 ffe | e3 d d4 | z8 | z8 | ^f2 a3 ggf | ^f3 e e4 | z4 gabg | ab c'3 c' b2 | %129
 c'4 abc'a | b3 a a4 | z8 | z8 | z8 | e^fge fg a2- | a^g g2 a4 | z8 | cdec de^fd | e^f g3 f f2 | %139
 e4 z4 | z8 ||"^(Comettino o Violino)" z4 z fed | e2 c2 d2 e2 | f4 e4 | z8 | z8 | z bag a2 f2 | %147
 a2 c'2 a4 | ^g4 z =gfe | g2 d2 z2 z e | fg a2 ^g4 | e3 e A4 | a3 a ad^cB | AB/^c/ d/e/f/g/ a2 f2 | %154
 e2 d4 ^c2 | d4 ^f3 f | a4 g3 g | g4 z4 | z8 | z8 | g3 g b4 | c'3 c' c'2 ag | f2 f2 z ecB | %163
 AB/c/ d/e/f/g/ a4- | a2 f2 e3 d | d4 d3 d | ^f4 g3 g | g4 z ^fdc | B^c/d/ e/^f/g/a/ b4- | %169
 b2 g2 ^f3 e | ebg^f e2 z2 | z Aed cd/e/ ^f/g/a/b/ | c'6 b2 | a4 ^g2 ^f2 | ^g16 |] %175
V:2
 x8 | z8 | z8 | z8 | z8 | z8 | z8 | z ^c c>B d2 d2 | z B B>A c2 c2 | z4 z ABd | %10
 c3/2B/4c/4 A3/2B/4c/4 B2 B2 | z4 z2 aa | g2 f2 e4 | d4 c2 z2 | z8 | z4 z2 ^ff | g2 ^f2 d2 c2 | %17
 B8 | B8 | z8 | z8 | z8 | z8 | z8 | g2 ea fd z2 | z4 z2 z ^f | dB z e cA z d | BG z c AF z2 | %28
 z4 ^FG/A/ BA | G2 z2 z4 | z4 ^cd/e/ ^fe | dded d2 ^c2 | d2 z a ^fd z2 | z8 | Bc/d/ ed ccdc | %35
 c3 B c4 | AB/^c/ dd =c2 cd | B6 B2 | B8 ||"^(Viola o Trombone)" z4 E4 | E4 D2 D2 | C3 C B,4 | %42
 A,2 B,2 C2 D2 | B,2 C4 B,2 | C2 G,2 C2 B,2 | A,4 B,4 | ^G,2 A,4 G,2 | A,8 | z8 | G,2 A,2 B,2 C2 | %50
 A,2 G,2 D3 D | D4 B,2 CD | E2 G,2 G,4 | A,4 z4 | z8 | z4 ^C2 DE | F2 A,2 B,4 | C4 z G,A,B, | %58
 C2 A,2 z DE^F | GG,A,B, C2 A,2 | z B,^C^D E2 C2 | ^D2 E4 D2 | E8 || %63
"^(Cornetto o Trombetta)" z4 z E GG/G/ | cecd e2 z e/f/ | gagf ed c2 | z2 G2 c2 G2 | d8 | %68
 d4 z e/f/ ga | gfed c2 g2 | a2 e2 g4- | g4 ^f4 | g4 z4 | z8 | z8 | z8 | z8 | z8 | z4 z ^f/g/ ab | %79
 ag^fe d2 f2 | g2 ^d2 e4- | e4 ^d4 | e4 z2 z e/^f/ | gag^f e=d c2- | cd e4 d2 | e6 e2 | ^f8 || %87
"^(Flautino)" z8 | z4 Bc/d/ AB | G^FGE F2 z2 | (D/^C/)(D/E/) FF (E/D/)(E/^F/) GG | %91
 (^F/E/)(F/G/) AA D G2 F | G2 z2 z4 | z8 | z8 | z8 | z8 | z8 | (E/D/)(E/^F/) GG (F/E/)(F/G/) AA | %99
 (G/^F/)(G/A/) BB E A2 ^G | A4 z4 | z8 | z2 E2 ^F3 F | G8 ||[M:3/2] B2 A2 G2 G2 ^F4 | G8 z4 | %106
[M:3/2] E2 ^F2 G2 A2 F4 | G8 z4 | E2 ^F2 G2 E2 D4 | C8 z4 | z4 D2 E2 F4 | E2 F2 G2 A2 G4 || %112
[M:4/4] G8 |[M:4/4] z8 | z8 | z8 | z8 | z8 | z8 | z8 | z8 ||"^(Violin)" z8 | z8 | z8 | z8 | %125
 d2 ^f3 eed | d3 ^c c4 | de^fd ef g2- | gg ^f2 g4 | e^fge fg a2- | aa ^g2 a4 | z8 | z8 | z8 | z8 | %135
 B^cdB =cd e2- | ee ^d2 e4 | z4 B^cdB | ^cd e3 e ^d2 | e4 z4 | z8 || %141
"^(Comettino o Violino)" z edc d2 cB | c2 A2 B2 c2 | c3 B c4 | z8 | z4 z agf | g2 e2 z fed | %147
 f2 e2 e3 d | edcB c2 G2 | z2 g2 f2 e2 | e3 d e4 | ^c3 c e4 | ^f3 f f4 | z d^cB AB/c/ d/e/f/g/ | %154
 a2 f2 e3 d | d4 d3 d | ^f4 d3 d | d4 z4 | z8 | z8 | d3 d g4 | g3 g gefg | a2 a2 z cAG | %163
 FG/A/ B/c/d/e/ f2 e2- | ed d4 ^c2 | d4 A3 A | d4 d3 d | d4 z dBA | GA/B/ ^c/d/e/^f/ g2 f2- | %169
 fe e4 ^d2 | e4 z ge=d | c2 z2 z ecB | AB/c/ d/e/f/g/ a2 b2 | e8 | e16 |] %175
V:3
 c6 B2 | B8 | A2 z E (^FG A2- | A^GAB c2 z B | cd e4) B2 | (TB6 A2) | B4 z BBc | AA A2 z AAB | %8
w: Mei- ne|See-|le er- hebt * *||* * * den|Her\- *|ren und mein Geist|freu- et sich, und mein Geist|
 GG G2 z GAc | (B3/2A/4B/4 G3/2A/4B/4 A3/2G/4A/4 F3/2E/4D/4 | E3/2^F/4G/4 F3/2^G/4A/4 G)G G2 | z8 | %12
w: freu- et sich, und mein Geist|freu\- * * * * * * * * * * *|* * * * * * * et sich||
 z8 | z2 dd e2 d2 | c2 (B3 A A2- | A2 ^G2) A4 | z2 AA B2 A2 | G4 ^F4 | E8 | z4 G4 | z GFE E3 E | %21
w: |Got- tes mei- nes|Hei- lan\- * *|* * des,|Got- tes mei- nes|Hei- lan-|des.|Denn|er hat die Nie- drig-|
 E2 ^FG A4 | B3 c d4 | B4 c2 Ad | BG z2 d2 Be | cA z2 z ecA | z dBG z cAF | z BGE z AFD | %28
w: keit sei- ner Magd|an- ge- se-|hen, sie- he, von|nun an, sie- he, von|nun an, von nun an,|von nun an, von nun an,|von nun an, von nun an|
 GA/B/ cB AA z2 | Bc/d/ ed ccdc | B3 A A4 | z4 z2 z A | ^FD z2 AB/c/ dc | BBcB A3 G | G4 z4 | %35
w: wer- den mich se- lig prei- sen,|wer- den mich se- lig prei- sen al- le|Kin- des- kind,|von|nun an wer- den mich se- lig|prei- sen al- le Kin- des-|kind,|
 z4 E^F/G/ AG | ^FG/A/ BA GG A2- | A2 G2 ^F3 E | E8 || z8 | z8 | z8 | z8 | z8 | z4 e4 | e4 d2 d2 | %46
w: wer- den mich se- lig,|wer- den mich se- lig prei- sen al\-|* le Kin- des-|kind.||||||Und|sei- ner Barm-|
 c3 c B4 | A2 B2 c2 d2 | (B2 c4) B2 | c4 z2 c2- | c2 B2 A3 G | G4 z4 | z8 | z4 A2 B^c | %54
w: her- zig- heit|wäh- ret im- mer|für * und|für, im\-|* mer für und|für,||bei de- nen|
 d2 ^F2 ^G4 | A4 z4 | z8 | z GAB c2 E2 | ^F4 GBcd | e2 G2 A4 | B8- | B8 | z8 || z8 | z8 | z8 | z8 | %67
w: die ihn für-|chten,||bei de- nen die ihn|für- chten, bei de- nen|die ihn für-|chten.|||||||
 z8 | z8 | z8 | z8 | z8 | z D GG/G/ BdBc | dB/c/ de dcBA | G2 z B c2 ^G2 | A6 ^G2 | A4 z E AA/A/ | %77
w: |||||Er ü- bet Ge- walt mit sei- nem|Arm, er zer- streu- et, die hof- fär- tig|sind in ih- res|Her- zens|Sinn, er ü- bet Ge-|
 ^cecd ec/d/ e^f | ed^cB A4 | z2 ^c2 d2 A2 | B8- | B2 B2 B4 | z G/A/ Bc BAGF | E2 B2 c2 ^G2 | A8- | %85
w: walt mit sei- nem Arm, er zer- streu- et,|die hof- fär- tig sind|in ih- res|Her\-|* zens Sinn,|er zer- streu- et, die hof- fär- tig|sind in ih- res|Her\-|
 A6 A2 | A8 || z8 | z8 | z8 | z8 | z8 | Bc/d/ AB G^FGE | ^F2 (G/F/) (G/A/) BB (A/G/) (A/B/) | %94
w: * zens|Sinn.||||||Er stö- sset die Ge- wal- ti- gen vom|Stuhl und * er\- * hö- het, und * er\- *|
 cc (B/A/) (B/c/) dd z c | B2 A2 ^G2 (A/G/) (A/B/) | cc (B/A/) (B/c/) dd (c/B/) (c/d/) | %97
w: hö- het, und * er\- * hö- het die|E- len- den, und * er\- *|hö- het, und * er\- * hö- het, und * er\- *|
 ee z d c2 B2 | A2 z2 z4 | z8 | z4 z2 E2 | ^F3 F ^G4 | z2 =G2 A3 A | d8 ||[M:3/2] z12 | %105
w: hö- het die E- len-|den.||Die|Hung- ri- gen,|die Hung- ri-|gen||
 d2 c2 B2 c2 A4 |[M:3/2] G8 z4 | G2 A2 B2 c2 A4 | G8 z4 | G2 A2 B2 c2 B4 | c4 B2 c2 d4 | %111
w: fül- let er mit Gü-|tern,|fül- let er mit Gü-|tern,|fül- let er mit Gü-|tern, fül- let er,|
 c2 d2 e2 f2 d4 ||[M:4/4] c8 |[M:4/4] z2 G2 c2 G2 | A6 E2 | %115
w: fül- let er mit Gü-|tern|und lässt die|Rei- chen|
 (^F>A B/A/B/^c/ d3/2) (A/"^Echo"B/A/B/c/ | d3/2)"^Echo" (A/B/A/B/^c/ d2) z2 | z2 A2 d2 A2 | %118
w: leer, * * * * * * leer, * * * *|* leer, * * * * *|und lässt die|
 B6 ^F2 | (^G>B ^c/B/c/^d/ e>)"^Echo"(B c/B/c/d/ | e>)"^Echo"(B ^c/B/c/^d/ e2) z2 || z8 | z8 | %123
w: Rei- chen|leer, * * * * * * leer, * * * *|* leer * * * * *|||
 B2 d3 ccB | B3 A A4 | z8 | z8 | z8 | z8 | z8 | z8 | ^c2 e3 ddc | ^c3 B B4 | AB^cA Bc d2- | %134
w: Er den- ket der Barm-|her- zig- keit,|||||||er den- ket der Barm-|her- zig- keit|und hilft sei- nem Die- ner Is\-|
 d^c c2 d4 | z8 | ^FGAF GA B2- | BA A2 B4 | z8 | GABG AB c2- | cB B2 ^c4 || z8 | z8 | z8 | %144
w: * ra- el auf,||und hilft sei- nem Die- ner Is\-|* ra- el auf,||und hilft sei- nem Die- ner Is\-|* ra- el auf.||||
 z edc d2 B2 | c2 B2 (B3 A) | B4 z4 | z4 z cBA | B2 ^G2 e2 dc | d2 B2 c2 B2 | (B3 A) B4 | %151
w: Wie er ge- redt hat|un- sern Vä\- *|tern,|wie er ge-|redt hat, wie er ge-|redt hat un- sem|Vä\- * tern,|
 A3 A ^c4 | d3 d d4 | z8 | z8 | z4 A3 A | d4 B3 B | BGFE (DE/^F/ G/A/B/c/ | d2) B2 (A2 G2- | %159
w: A- bra- ham,|A- bra- ham,|||A- bra-|ham, A- bra-|ham und sei- nem Sa\- * * * * * *|* men e\- *|
 G2) ^F2 G4 | B3 B d4 | e3 e e4 | z AGF E2 E2 | z FED (CD/E/ F/G/A/B/ | c2) A2 A3 A | A4 ^F3 F | %166
w: * wig- lich,|A- bra- ham,|A- bra- am|und sei- nem Sa- men,|und sei- nem Sa\- * * * * * *|* men e- wig-|lich, A- bra-|
 A4 B3 B | BdcB A2 A2 | z G^FE (DE/F/ G/A/B/c/ | d2) B2 B3 B | B4 z4 | z ecB (A^F/G/ A/B/c/d/ | %172
w: ham, A- bra-|ham und sei- nem Sa- men,|und sei- nem Sa\- * * * * * *|* men e- wig-|lich,|und sei- nem Sa\- * * * * * *|
 e6) (ed) | c6 c2 | B16 |] %175
w: * men *|e- wig-|lich.|
V:4
 A,,8 | x4- x4 | A,,8 | A,,8 | A,4 G,4 | x4- x4 | E,4 E,4 | A,,4 D,4 | G,,4 C,4 | G,,4 D,4 | %10
w: |4|||* 6|4|||||
w: ||||||||||
 A,,4 E,4- | E,2 D,2 C,2 D,2 | E,2 F,2 (x2- x2 | x2) x2 C,2 B,,2 | C,2 G,2 x2-xD, | %15
w: ||* 6 6||* * 7 *|
w: ||* * 3|||
 x2- x2 A,,2 D,2 | G,2 D,2 G,,2 A,,2 | x2- x2 x2 x2 | E,,8 | C,8 | B,,4 C,4- | C,4 ^C,4 | %22
w: 4 * *|* * * 6|6|||||
w: |||||||
 D,2 E,2 F,4 | E,4 C,2 D,2 | G,2 A,2 D,2 E,2 | F,2 G,2 C2 A,2 | B,2 G,2 A,2 F,2 | G,2 E,2 F,2 D,2 | %28
w: 6 * 6|||* * * 6|5 6 * 6|* 6 * *|
w: ||||||
 E,2 C,2 D,2 B,,2 | E,2 C,2 F,2 D,2 | E,4 A,2 ^F,2 | B,2 x-x x2- x2 | D,4 D,2 B,,2 | E,2 C,2 D,4 | %34
w: |||* 6 4|||
w: ||||||
 G,2 E,2 A,2 x-x | x2- x2 C,2 A,,2 | D,2 B,,2 C,2 x-x | x2- x4 x2 | E,,8 || E,8 | F,4 G,4 | %41
w: * * * 6|4 * *|* * * 6||||9 7|
w: ||||||7 *|
 A,3 A, ^G,4 | A,6 F,2 | G,2 F,2 x2- x2 | C,8 | x4- x4 | x2- x2 x2 x2 | A,6 F,2 | x2- x4 x2 | C,8 | %50
w: |* 6|* * 4||9|6|* 6|3||
w: |||||||||
 x2- x4 x2 | G,,4 G,4 | x4- x4 | D,4 D,4- | D,4 B,,4 | A,,4 A,4 | F,4 D,4 | C,8 | A,,4 G,,4 | %59
w: 7||||* 6||* 6||6 *|
w: |||||||||
 E,4 C,4 | (x4- x4 | B,,2) G,,2 x2- x2 | E,,8 || C,8 | C,8 | C,8 | x2- x2 x2- x2 | x4- x4 | %68
w: * 6||* 6 4|||||6 6|4|
w: |||||||||
 G,,4 C,4- | C,4 C,4- | x2 x2 x2- x2 | x4- x4 | G,,8 | G,,8 | G,,4 x2- x2 | F,,2 ^C,2 x2- x2 | %76
w: ||6|4|||* 6|* 6 4|
w: ||||||||
 A,,8- | A,,4 A,4- | A,4 ^F,4- | x2 x2 ^F,4 | x2- x2 ^G,,4 | x4- x4 | E,8- | E,4 x2- x2 | %84
w: ||* 6|6|6 6|4||* 6|
w: ||||||||
 x2- x2 ^F,,4 | x4- x4 | D,8 || G,2 ^F,2 E,2 C,2 | B,,2 A,,2 G,,2 D,2 | E,2 A,,2 D,2 E,2 | %90
w: 6 6|4|||5 * * *||
w: ||||||
 G,2 F,2 A,2 G,2 | B,2 A,2 G,2 D,2 | G,2 ^F,2 E,2 C,2 | x2-xA,, G,,2 C,B,, | A,,2 D,C, B,,2 A,,2 | %95
w: |||5 * * * *|* 6 * * *|
w: |||||
 B,,x-x^D, E,2 C,B,, | A,,2 D,C, B,,2 E,D, | C,2 D,2 E, A,2 ^G, | A,2 =G,2 B,2 A,2 | %99
w: 6 * * * 6 *|* 6 * * 6 *||* * 5 *|
w: ||||
 C2 B,2 A,2 E,2 | A,4 A,,4- | A,,4 E,4 | z2 C,2 A,,4 | G,,8 ||[M:3/2] G,6 C,2 D,4 | G,8 ^F,4 | %106
w: ||6 *|* 6||||
w: |||||||
[M:3/2] E,6 C,2 D,4 | E,6 C,2 D,4 | E,6 C,2 G,4 | C,4 B,,2 A,,2 G,,4 | C,4 G,4 F,4 | %111
w: |||* 6 * *||
w: |||||
 A,4 G,2 F,2 G,4 ||[M:4/4] C,8 |[M:4/4] C,8 | x2-xG,, x2- x2 | D,8- | D,6 z2 | ^F,,8 | %118
w: |||5 * 4|||6|
w: |||||||
 x2-xA,, x2- x2 | E,8- | E,6 z2 || C4 B,4 | C4 G,4 | G,4 ^F,4 | G,4 D,4 | D4 ^C4 | D4 A,4 | %127
w: 5 * 4|||||||||
w: |||||||||
 B,2 D2 C2 B,2 | x2- x2 G,4 | C,2 E,2 D,2 A,2 | x2- x2 A,,4 | A,4 ^G,4 | A,4 E,4 | %133
w: * * * 6|7 *|* 6 * *|4 *|||
w: ||||||
 ^F,2 A,2 =G,2 B,2 | x2- x2 D,4 | x2- x2 A,,2 C,2 | x2- x2 E,2 D,2 | x2- x2 B,,4 | %138
w: |4 *|4 * 6|4 * 6|7 *|
w: |||||
 A,,2 E,,2 x2- x2 | E,4 D,2 A,,2 | E,4 A,,4 || A,4 D,4 | A,4 G,2 E,2 | x2- x2 C,4 | C,4 G,4 | %145
w: * * 4||||* * 6|7 *||
w: |||||||
 A,2 G,2 x2- x2 | E,4 D,4- | D,2 C,2 x2- x2 | E,4 C4 | B,4 A,2 G,2 | x2- x2 E,4 | A,3 A, A,4 | %152
w: * * 4||* * 7||6 6 6|4 *||
w: |||||||
 D,3 D, D,4 | D,8 | x2- x4 x2 | D,4 D,3 D, | D,4 G,,3 G,, | G,,8 | B,,4 (x2- x2 | x2) x2 G,,4 | %160
w: ||||||6 *||
w: ||||||||
 G,3 G, G,4 | C,3 C, C,2 D,E, | F,4 C,4 | D,4 x2- x2 | x2-xG,, x2- x2 | D,4 D,3 D, | D,4 G,,3 G,, | %167
w: |||* 6|7 * 4|||
w: |||||||
 G,,4 D,4 | E,4 x2- x2 | x2-xA,, x2- x2 | E,,4 E,2 C,B,, | A,,8 | A,,6 ^G,,2 | A,,8 | E,16 |] %175
w: |* 6|7 * 4||||||
w: ||||||||

